hush

setcps(155/60/4)

d1 $ n "1 ~ ~ <1 ~ >  ~ 1 ~ ~"
  # s "kick"

d2 $ n "~ ~ <1 2 2>*<4 2 1 1> ~ ~ ~ 1 ~"
  # s "snare"


d3 $ chop 1
  $ n " 1 2 3 4 5 6 7 8" |> (irand 8) 
  # s "amencutup"
  # gain 1.4
  

d5 $ slow 4  $ n "1 2 1 ~"
  # s "midi" -- Electric city

d5 silence

d6 rush

d6 $ slow 4
  $ n (off 0.06125 (|+ 12) "a [a d] f [d ~ e f] ")
  # s "donk"
  # legato 2
  # lpf 200


d7 $ slow 0.5
  $ n "a?0.6 f?0.5 d?0.3 e?0.4"
  # s "acid"
  # lpf 1800
  # gain 1





