d1 $ n "1 2 3 4"
    # s "[axo,snc]"
    # midichan "[0,1,2,3,4,5,6,7,8,9,10,11,12,13,14,15]"


d2 $ n " 1 2 3 4" 
    # "bd sd"

    hush

d3 $ slow 2 $ n  (off "0.125" (|+ 12)  "a b f d" ) 
    # s "superreese"

d4 $ n "2 2 [2 2] 2" 
    # s "dbass"
    -- # lpf "<200  1200 > "

hush

"1 1 1 2"   =   "1!3 2"

"[1 1 1] 2 "  = " 1*3 2"

hush







off