hush

d1 silence

d2 silence

d3 silence

d4 silence

d5 silence

d6 silence

d7 silence

d8 silence

d9 silence


p "midiclock" $ midicmd "midiClock*96" # s "mono"

once $ midicmd "stop" # s "mono"

once $ midicmd "start/4" # s "mono"

p "midictl" $ midicmd "start/4" # s "mono"

p "midictl" $ silence

let hush = mapM_ ($ silence) [d1,d2,d3,d4,d5,d6,d7,d8,d9,d10,d11,d12,d13,d14,d15,d16]
