  d4 $degradeBy "0.6 0.5" $ slow 8
    $ juxBy 0.5 rev
    $ striate 2
    $ n "1 22 3 4 7 5 8 9"
    # s "science"
    # speed 0.95
    # elementsstrength "0.1"
    # elementspitch (slow 0.5 sine)
    # elementsblowlevel 1
    # elementsblowtimb (slow 8 sine)
    # elementsflow "{0.3 0.6 0.7}"
    # gain 1.3