hush

d1 $ s "hardkick!4"


d3 $ s "amencutup*8" # n (irand 8)

d2 $ (mask "0 1 1 0 0 1 0 1 ")  $ s "hh!32"
  # gain (rand + 0.7)




d3 $ s "onc*8" # n "1*8"
  # midichan "[[0 ~ <1 0> ~ [0 0 0 0] ~ 0 ~], [ 1 1 1 1 ], 2(3,8) , 3(5,8) ]"


d4 $ n "60 61 60 62"
  # s "opz"
  # midichan 0




do
  hush
  d5 $slow 4 $ n (off "<0.0625 0.25>"  (|+ 12)  "c a [ a e f [ e c e e] ] ~ " )
    # s "pfm2"
